X:1
T:the Humours of Lisheen
T:the Thrush in the Straw
M:6/8
L:1/8
R:Double Jig
Z:Rob Greenway
S:Rob Greenway <robgreenway:yahoo.com> IrishTradAccord 2005-4-22
K:G
   g | efg edB | cBA BGE | ~G3 BAB | BAG A2g \
     | efg edB | cBA BGE | ~G3 BdB | AGF G2 :|
|: D | GBd gfg | agf g2e | fed edb | cbA BGE \
     | GBd gfg | agf g2e | fed BdB | AGF G2 :|
